Pods/ProtonCore-UIFoundations/libraries/UIFoundations/Sources/Assets.xcassets/Images/IconSet/ic-tag.imageset/ic-tag.svg

<svg width="24" height="24" viewBox="0 0 24 24" fill="none" xmlns="http://www.w3.org/2000/svg">
<path fill-rule="evenodd" clip-rule="evenodd" d="M14.1372 21.5625L21.5618 14.1379L11.9249 4.50095H4.50024L4.50024 11.9256L14.1372 21.5625ZM13.0765 22.6232C13.6623 23.2089 14.6121 23.2089 15.1978 22.6232L22.6225 15.1985C23.2082 14.6128 23.2082 13.663 22.6225 13.0772L12.9855 3.44028C12.7042 3.15898 12.3227 3.00095 11.9249 3.00095H4.50024C3.67182 3.00095 3.00024 3.67252 3.00024 4.50095V11.9256C3.00024 12.3234 3.15828 12.7049 3.43958 12.9862L13.0765 22.6232ZM8.24997 9.75023C9.0784 9.75023 9.74997 9.07865 9.74997 8.25023C9.74997 7.4218 9.0784 6.75023 8.24997 6.75023C7.42154 6.75023 6.74997 7.4218 6.74997 8.25023C6.74997 9.07865 7.42154 9.75023 8.24997 9.75023Z" fill="#0C0C14"/>
</svg>

<svg xmlns="http://www.w3.org/2000/svg" width="24" height="24" viewBox="0 0 24 24">
  <g class="ic-tag">
    <path fill-rule="evenodd" d="m14.137 21.563 7.425-7.425L11.925 4.5H4.5v7.425l9.637 9.636Zm-1.06 1.06a1.5 1.5 0 0 0 2.12 0l7.425-7.425a1.5 1.5 0 0 0 0-2.12L12.985 3.44a1.5 1.5 0 0 0-1.06-.439H4.5A1.5 1.5 0 0 0 3 4.5v7.425c0 .397.158.779.44 1.06l9.636 9.637ZM8.25 9.75a1.5 1.5 0 1 0 0-3 1.5 1.5 0 0 0 0 3Z" class="Icon"/>
  </g>
</svg>
